X:1
T:Moriah (Mason)
T:Moriah (Mason)
T:Carmina Sacra, by Lowell Mason, 1844
T:Public Domain Courtesy of the Cyber Hymnal™
C:Carmina Sacra, by Lowell Mason, 1844
Z:Public Domain
Z:Courtesy of the Cyber Hymnal™
%%score 1 2 3 ( 4 5 )
L:1/8
Q:1/4=103
M:2/4
K:G
V:1 treble 
V:2 treble 
V:3 treble-8 
V:4 bass 
V:5 bass 
V:1
 G2 | G2 G2 | G2 G2 | G2 F2 | G2 B2 | G2 d2 | A2 d2 | c2 B2{cd} | !fermata!d2 (B>c) | dd cc | %10
 BB A z | z4 | z3 d | d2 B2 | c2 d2 | e2 (dc) | !fermata!B2 |] %17
V:2
 B,>C | D2 E2 | D2 (CE) | D2 D2 | D2 G2 | G2 F2 | E2 D2 | D2 D2 | !fermata!F2 z2 | z4 | z3 D | %11
 GG AA | GG DF | G2 D2 | (EF) G2 | G2 F2 | !fermata!G2 |] %17
V:3
 G>A | B2 c2 | d2 e2 | A2 A2{AB} | B2 G2 | c2 B2 | A2 G2 | F2 G2{AB} | !fermata!A2 z2 | z4 | z3 A | %11
 BB cc | BB AA | B2 d2 | c2 B2 | A2 A2 | !fermata!G2 |] %17
V:4
 G,2 | G,2 E,2 | B,,2 C,2 | D,2 D,2 | G,,2 G,2 | E,2 D,2 | C,2 B,,2 | A,,2 G,,2 | %8
 !fermata!D,2 (G,>A,) | B,B, A,A, | G,G, D, z | D,,4- | z3 D, | G,2 A,2 | G,2 F,2 | C,2 D,2 | %16
 !fermata![G,,G,]2 |] %17
V:5
 x2 | x4 | x4 | x4 | x4 | x4 | x4 | x4 | x4 | D,,4- | D,,4- | x4 | D,,4 | x4 | x4 | x4 | x2 |] %17

